X:180
T: Wo da changgong shi jiannan
N: C1672
O: China,Jiangxi, Jinxian
S: IV, 229]
R: Shange. Suku]
M: 2/4
L: 1/16
K: A
F2F2FEC2 | z4-z2F2 | A2ABc2c2 | c2B6- | B4c2F2 |
A2BcB2BA | F2E4F2 | A2F2z2
F2 | A3BB2BA | F2E4F2 | A2F2z2
F2 | A2B2BAFE | E2E6

@@@ Tune index: 6735
